fs/smartwatch_24_regular.svg

<svg viewBox="0 0 24 24" fill="none" xmlns="http://www.w3.org/2000/svg" height="1em" width="1em">
  <path d="M7.5 6.40135V4C7.5 2.89543 8.39543 2 9.5 2H14.5C15.6046 2 16.5 2.89543 16.5 4V6.40135C17.3967 6.92006 18 7.88958 18 9V10C18.5523 10 19 10.4477 19 11V12C19 12.5523 18.5523 13 18 13V15C18 16.1104 17.3967 17.0799 16.5 17.5987L16.5 20C16.5 21.1046 15.6046 22 14.5 22H9.5C8.39543 22 7.5 21.1046 7.5 20L7.5 17.5987C6.6033 17.0799 6 16.1104 6 15V9C6 7.88958 6.6033 6.92006 7.5 6.40135ZM9.5 3.5C9.22386 3.5 9 3.72386 9 4V6H15V4C15 3.72386 14.7761 3.5 14.5 3.5H9.5ZM16.5 15V9C16.5 8.17157 15.8284 7.5 15 7.5H9C8.17157 7.5 7.5 8.17157 7.5 9V15C7.5 15.8284 8.17157 16.5 9 16.5H15C15.8284 16.5 16.5 15.8284 16.5 15ZM9 20C9 20.2761 9.22386 20.5 9.5 20.5H14.5C14.7761 20.5 15 20.2761 15 20V18H9L9 20Z" fill="#212121"/>
</svg>

<svg viewBox="0 0 24 24" fill="none" xmlns="http://www.w3.org/2000/svg" height="1em" width="1em">
  <path d="M7.5 6.401V4a2 2 0 0 1 2-2h5a2 2 0 0 1 2 2v2.401A2.999 2.999 0 0 1 18 9v1a1 1 0 0 1 1 1v1a1 1 0 0 1-1 1v2a3 3 0 0 1-1.5 2.599V20a2 2 0 0 1-2 2h-5a2 2 0 0 1-2-2v-2.401A2.999 2.999 0 0 1 6 15V9a3 3 0 0 1 1.5-2.599Zm2-2.901A.5.5 0 0 0 9 4v2h6V4a.5.5 0 0 0-.5-.5h-5Zm7 11.5V9A1.5 1.5 0 0 0 15 7.5H9A1.5 1.5 0 0 0 7.5 9v6A1.5 1.5 0 0 0 9 16.5h6a1.5 1.5 0 0 0 1.5-1.5ZM9 20a.5.5 0 0 0 .5.5h5a.5.5 0 0 0 .5-.5v-2H9v2Z" fill="#212121"/>
</svg>
